; generated by Slic3r 1.33.8-prusa3d-win64 on 2017-05-19 at 09:38:23

; external perimeters extrusion width = 0.40mm
; perimeters extrusion width = 0.67mm
; infill extrusion width = 0.67mm
; solid infill extrusion width = 0.67mm
; top infill extrusion width = 0.67mm

M107
M80 ; turn on PSU
M140 S55
M104 S240 ; start E heating
M17; enable motors
G28 X Y ; Z ; Home
M190 S55
M109 S240
G91
G1 E5 F200
G90
G21 ; set units to millimeters
G90 ; use absolute coordinates
M82 ; use absolute distances for extrusion
G92 E0
G1 E-2.00000 F1800.00000
G92 E0
G1 Z0.200 F5400.000
G1 X171.528 Y118.752 F5400.000
G1 E2.00000 F1800.00000
G1 F1200
G1 X171.906 Y118.271 E2.03194
G1 X172.337 Y117.838 E2.06388
G1 X172.811 Y117.461 E2.09553
G1 X173.330 Y117.138 E2.12747
G1 X173.878 Y116.880 E2.15912
G1 X174.458 Y116.685 E2.19106
G1 X175.050 Y116.559 E2.22271
G1 X175.659 Y116.503 E2.25465
G1 X200.161 Y116.504 E3.53473
G1 X200.578 Y116.538 E3.55662
G1 X200.992 Y116.606 E3.57852
G1 X201.399 Y116.706 E3.60041
G1 X201.796 Y116.838 E3.62230
G1 X202.182 Y117.002 E3.64420
G1 X202.554 Y117.196 E3.66609
G1 X202.909 Y117.418 E3.68798
G1 X203.245 Y117.669 E3.70987
G1 X203.665 Y118.048 E3.73945
G1 X204.043 Y118.470 E3.76903
G1 X204.372 Y118.930 E3.79861
G1 X204.650 Y119.423 E3.82819
G1 X204.874 Y119.943 E3.85777
G1 X205.040 Y120.485 E3.88735
G1 X205.148 Y121.040 E3.91693
G1 X205.194 Y121.605 E3.94650
G1 X205.190 Y142.017 E5.01292
G1 X205.153 Y142.428 E5.03452
G1 X205.084 Y142.836 E5.05612
G1 X204.984 Y143.237 E5.07772
G1 X204.852 Y143.629 E5.09931
G1 X204.689 Y144.009 E5.12091
G1 X204.498 Y144.375 E5.14251
G1 X204.278 Y144.725 E5.16411
G1 X204.031 Y145.057 E5.18570
G1 X203.652 Y145.478 E5.21528
G1 X203.226 Y145.859 E5.24516
G1 X202.766 Y146.189 E5.27473
G1 X202.268 Y146.469 E5.30461
G1 X201.747 Y146.692 E5.33419
G1 X201.201 Y146.859 E5.36406
G1 X200.639 Y146.966 E5.39394
G1 X200.074 Y147.011 E5.42351
G1 X175.620 Y147.008 E6.70112
G1 X175.208 Y146.975 E6.72272
G1 X174.794 Y146.908 E6.74461
G1 X174.387 Y146.808 E6.76651
G1 X173.990 Y146.676 E6.78840
G1 X173.604 Y146.513 E6.81029
G1 X173.232 Y146.320 E6.83219
G1 X172.877 Y146.097 E6.85408
G1 X172.540 Y145.847 E6.87597
G1 X172.123 Y145.473 E6.90525
G1 X171.749 Y145.056 E6.93454
G1 X171.421 Y144.601 E6.96382
G1 X171.143 Y144.114 E6.99310
G1 X170.919 Y143.601 E7.02239
G1 X170.750 Y143.066 E7.05167
G1 X170.640 Y142.517 E7.08095
G1 X170.588 Y141.959 E7.11024
G1 X170.588 Y121.554 E8.17626
G1 X170.615 Y121.193 E8.19520
G1 X170.667 Y120.828 E8.21443
G1 X170.744 Y120.469 E8.23366
G1 X170.847 Y120.115 E8.25289
G1 X170.974 Y119.770 E8.27212
G1 X171.125 Y119.434 E8.29135
G1 X171.299 Y119.110 E8.31058
G1 X171.494 Y118.801 E8.32964
G1 X172.021 Y119.142 F5400.000
G1 F1200
G1 X172.353 Y118.714 E8.35795
G1 X172.733 Y118.327 E8.38626
G1 X173.155 Y117.987 E8.41456
G1 X173.618 Y117.697 E8.44315
G1 X174.108 Y117.465 E8.47145
G1 X174.621 Y117.292 E8.49976
G1 X175.151 Y117.180 E8.52807
G1 X175.691 Y117.130 E8.55638
G1 X200.115 Y117.131 E9.83242
G1 X200.486 Y117.160 E9.85186
G1 X200.853 Y117.219 E9.87129
G1 X201.215 Y117.307 E9.89072
G1 X201.568 Y117.424 E9.91015
G1 X201.910 Y117.568 E9.92958
G1 X202.240 Y117.740 E9.94902
G1 X202.555 Y117.938 E9.96845
G1 X202.854 Y118.160 E9.98788
G1 X203.224 Y118.495 E10.01397
G1 X203.556 Y118.868 E10.04006
G1 X203.846 Y119.274 E10.06615
G1 X204.091 Y119.710 E10.09224
G1 X204.287 Y120.169 E10.11833
G1 X204.433 Y120.646 E10.14442
G1 X204.527 Y121.137 E10.17051
G1 X204.567 Y121.635 E10.19660
G1 X204.564 Y141.963 E11.25867
G1 X204.533 Y142.329 E11.27782
G1 X204.473 Y142.690 E11.29698
G1 X204.385 Y143.046 E11.31613
G1 X204.269 Y143.394 E11.33529
G1 X204.125 Y143.732 E11.35444
G1 X203.956 Y144.057 E11.37360
G1 X203.761 Y144.367 E11.39275
G1 X203.543 Y144.662 E11.41191
G1 X203.205 Y145.037 E11.43827
G1 X202.832 Y145.369 E11.46436
G1 X202.426 Y145.660 E11.49045
G1 X201.986 Y145.907 E11.51682
G1 X201.522 Y146.106 E11.54319
G1 X201.044 Y146.251 E11.56927
G1 X200.549 Y146.344 E11.59564
G1 X200.045 Y146.383 E11.62201
G1 X175.666 Y146.381 E12.89573
G1 X175.295 Y146.352 E12.91516
G1 X174.933 Y146.295 E12.93431
G1 X174.571 Y146.207 E12.95375
G1 X174.218 Y146.091 E12.97318
G1 X173.880 Y145.949 E12.99233
G1 X173.550 Y145.778 E13.01177
G1 X173.234 Y145.581 E13.03120
G1 X172.935 Y145.359 E13.05063
G1 X172.568 Y145.029 E13.07644
G1 X172.238 Y144.661 E13.10226
G1 X171.949 Y144.260 E13.12807
G1 X171.704 Y143.831 E13.15388
G1 X171.506 Y143.379 E13.17969
G1 X171.357 Y142.902 E13.20578
G1 X171.260 Y142.418 E13.23159
G1 X171.216 Y141.925 E13.25740
G1 X171.215 Y121.599 E14.31937
G1 X171.281 Y120.965 E14.35266
G1 X171.434 Y120.341 E14.38624
G1 X171.671 Y119.749 E14.41953
G1 X171.988 Y119.192 E14.45302
G1 F4320
G1 X172.353 Y118.714 E14.21485
G1 F4320
G1 X172.733 Y118.327 E14.00038
G1 F4320
G1 X173.155 Y117.987 E13.78591
G1 F4320
G1 X173.618 Y117.697 E13.56934
G1 F4320
G1 X174.108 Y117.465 E13.35487
G1 F4320
G1 X174.621 Y117.292 E13.14040
G1 F4320
G1 X175.151 Y117.180 E12.92593
G1 F4320
G1 X175.691 Y117.130 E12.71146
G1 F4320
G1 X176.091 Y117.130 E12.55302
G1 E12.45302 F1800.00000
G92 E0
G1 X183.694 Y123.077 F5400.000
G1 E2.00000 F1800.00000
G1 F1200
G1 X198.619 Y123.077 E2.77974
G1 X198.619 Y140.435 E3.68661
G1 X183.694 Y140.435 E4.46635
G1 X183.694 Y123.137 E5.37009
G1 X183.066 Y122.449 F5400.000
G1 F1200
G1 X199.247 Y122.449 E6.21548
G1 X199.247 Y141.064 E7.18800
G1 X183.066 Y141.064 E8.03340
G1 X183.066 Y122.509 E9.00278
G1 F4320
G1 X187.866 Y122.491 E7.10278
G1 E7.00278 F1800.00000
G92 E0
G1 X182.573 Y141.156 F5400.000
G1 E2.00000 F1800.00000
G1 F1200
G1 X182.573 Y122.356 E2.55820
G1 X176.041 Y122.356 E2.75215
G1 X176.041 Y121.956 E2.76402
G1 X199.740 Y121.956 E3.46768
G1 X199.740 Y141.556 E4.04963
G1 X176.041 Y141.556 E4.75328
G1 X176.041 Y141.156 E4.76515
G1 X182.513 Y141.156 E4.95732
G1 X182.973 Y141.148 F5400.000
G1 F4320
G1 X182.528 Y136.356 E3.05732
G1 E2.95732 F1800.00000
G92 E0
G1 X183.945 Y138.901 F5400.000
G1 E2.00000 F1800.00000
G1 F1200
G1 X184.946 Y139.901 E2.07462
G1 X185.843 Y139.901 E2.12195
G1 X184.228 Y138.286 E2.24242
G1 X184.228 Y137.389 E2.28975
G1 X186.740 Y139.901 E2.47716
G1 X187.637 Y139.901 E2.52449
G1 X184.228 Y136.492 E2.77883
G1 X184.228 Y135.595 E2.82617
G1 X188.535 Y139.901 E3.14745
G1 X189.432 Y139.901 E3.19478
G1 X184.228 Y134.697 E3.58300
G1 X184.228 Y133.800 E3.63033
G1 X190.329 Y139.901 E4.08549
G1 X191.226 Y139.901 E4.13282
G1 X184.228 Y132.903 E4.65492
G1 X184.228 Y132.006 E4.70225
G1 X192.123 Y139.901 E5.29129
G1 X193.021 Y139.901 E5.33862
G1 X184.228 Y131.109 E5.99460
G1 X184.228 Y130.211 E6.04193
G1 X193.918 Y139.901 E6.76484
G1 X194.815 Y139.901 E6.81217
G1 X184.228 Y129.314 E7.60202
G1 X184.228 Y128.417 E7.64935
G1 X195.712 Y139.901 E8.50614
G1 X196.610 Y139.901 E8.55348
G1 X184.228 Y127.520 E9.47720
G1 X184.228 Y126.622 E9.52454
G1 X197.507 Y139.901 E10.51520
G1 X198.085 Y139.901 E10.54569
G1 X198.085 Y139.582 E10.56253
G1 X184.228 Y125.725 E11.59632
G1 X184.228 Y124.828 E11.64365
G1 X198.085 Y138.685 E12.67743
G1 X198.085 Y137.787 E12.72476
G1 X184.228 Y123.931 E13.75855
G1 X184.228 Y123.611 E13.77540
G1 X184.806 Y123.611 E13.80588
G1 X198.085 Y136.890 E14.79655
G1 X198.085 Y135.993 E14.84389
G1 X185.703 Y123.611 E15.76762
G1 X186.600 Y123.611 E15.81495
G1 X198.085 Y135.096 E16.67175
G1 X198.085 Y134.198 E16.71908
G1 X187.498 Y123.611 E17.50894
G1 X188.395 Y123.611 E17.55628
G1 X198.085 Y133.301 E18.27920
G1 X198.085 Y132.404 E18.32653
G1 X189.292 Y123.611 E18.98251
G1 X190.189 Y123.611 E19.02984
G1 X198.085 Y131.507 E19.61889
G1 X198.085 Y130.610 E19.66622
G1 X191.087 Y123.611 E20.18833
G1 X191.984 Y123.611 E20.23566
G1 X198.085 Y129.712 E20.69083
G1 X198.085 Y128.815 E20.73816
G1 X192.881 Y123.611 E21.12639
G1 X193.778 Y123.611 E21.17372
G1 X198.085 Y127.918 E21.49501
G1 X198.085 Y127.021 E21.54234
G1 X194.675 Y123.611 E21.79670
G1 X195.573 Y123.611 E21.84403
G1 X198.085 Y126.123 E22.03144
G1 X198.085 Y125.226 E22.07877
G1 X196.470 Y123.611 E22.19925
G1 X197.367 Y123.611 E22.24658
G1 X198.368 Y124.612 E22.32121
M106 S252.45
M104 S233 ; set temperature
G1 F4320
G1 X197.367 Y123.611 E21.76123
G1 F4320
G1 X196.470 Y123.611 E21.40607
G1 F4320
G1 X198.085 Y125.226 E20.50210
G1 F4320
G1 X198.085 Y125.430 E20.42121
G1 E20.32121 F1800.00000
G92 E0
G1 Z0.400 F5400.000
G1 X182.591 Y122.356 F5400.000
G1 E2.00000 F1800.00000
G1 F1350
G1 X182.591 Y141.156 E2.55820
G1 X175.641 Y141.156 E2.76454
M106 S229.5
G1 F2400
G1 X174.963 Y141.156 E2.79996
G1 X174.963 Y122.356 E3.78216
G1 X175.641 Y122.356 E3.81757
M106 S252.45
G1 F1350
G1 X182.531 Y122.356 E4.02214
G1 X182.972 Y122.477 F5400.000
G1 X183.712 Y123.077 F5400.000
G1 F2700
G1 X198.636 Y123.077 E4.80188
G1 X198.636 Y140.435 E5.70875
G1 X183.712 Y140.435 E6.48849
G1 X183.712 Y123.137 E7.39222
G1 X183.083 Y122.449 F5400.000
G1 F2700
G1 X199.265 Y122.449 E8.23762
G1 X199.265 Y141.064 E9.21014
G1 X183.083 Y141.064 E10.05554
G1 X183.083 Y122.509 E11.02492
G1 F4320
G1 X187.883 Y122.491 E9.12492
G1 E9.02492 F1800.00000
G92 E0
G1 X199.757 Y121.956 F5400.000
G1 E2.00000 F1800.00000
G1 F1350
G1 X199.757 Y141.556 E2.58195
G1 X175.641 Y141.556 E3.29800
M106 S229.5
G1 F2400
G1 X174.560 Y141.556 E3.35447
G1 X174.560 Y121.956 E4.37847
G1 X175.641 Y121.956 E4.43494
M106 S252.45
G1 F1350
G1 X199.697 Y121.956 E5.14921
G1 X199.462 Y122.226 F5400.000
G1 F4320
G1 X199.712 Y126.756 E3.24921
G1 E3.14921 F1800.00000
G92 E0
G1 X185.246 Y123.329 F5400.000
G1 E2.00000 F1800.00000
G1 F2430
G1 X184.246 Y124.329 E2.07462
G1 X184.246 Y125.226 E2.12196
G1 X185.860 Y123.611 E2.24242
G1 X186.758 Y123.611 E2.28976
G1 X184.246 Y126.123 E2.47716
G1 X184.246 Y127.020 E2.52450
G1 X187.655 Y123.611 E2.77884
G1 X188.552 Y123.611 E2.82617
G1 X184.246 Y127.918 E3.14746
G1 X184.246 Y128.815 E3.19479
G1 X189.449 Y123.611 E3.58301
G1 X190.346 Y123.611 E3.63034
G1 X184.246 Y129.712 E4.08550
G1 X184.246 Y130.609 E4.13283
G1 X191.244 Y123.611 E4.65493
G1 X192.141 Y123.611 E4.70227
G1 X184.246 Y131.507 E5.29130
G1 X184.246 Y132.404 E5.33864
G1 X193.038 Y123.611 E5.99461
G1 X193.935 Y123.611 E6.04194
G1 X184.246 Y133.301 E6.76486
G1 X184.246 Y134.198 E6.81219
G1 X194.833 Y123.611 E7.60204
G1 X195.730 Y123.611 E7.64937
G1 X184.246 Y135.096 E8.50616
G1 X184.246 Y135.993 E8.55350
G1 X196.627 Y123.611 E9.47722
G1 X197.524 Y123.611 E9.52456
G1 X184.246 Y136.890 E10.51522
G1 X184.246 Y137.787 E10.56256
G1 X198.102 Y123.931 E11.59634
G1 X198.102 Y124.828 E11.64367
G1 X184.246 Y138.685 E12.67746
G1 X184.246 Y139.582 E12.72479
G1 X198.102 Y125.725 E13.75857
G1 X198.102 Y126.622 E13.80590
G1 X184.823 Y139.901 E14.79658
G1 X185.721 Y139.901 E14.84391
G1 X198.102 Y127.519 E15.76765
G1 X198.102 Y128.417 E15.81498
G1 X186.618 Y139.901 E16.67178
G1 X187.515 Y139.901 E16.71911
G1 X198.102 Y129.314 E17.50897
G1 X198.102 Y130.211 E17.55630
G1 X188.412 Y139.901 E18.27922
G1 X189.310 Y139.901 E18.32655
G1 X198.102 Y131.108 E18.98254
G1 X198.102 Y132.006 E19.02987
G1 X190.207 Y139.901 E19.61891
G1 X191.104 Y139.901 E19.66625
G1 X198.102 Y132.903 E20.18835
G1 X198.102 Y133.800 E20.23568
G1 X192.001 Y139.901 E20.69085
G1 X192.899 Y139.901 E20.73818
G1 X198.102 Y134.697 E21.12641
G1 X198.102 Y135.595 E21.17375
G1 X193.796 Y139.901 E21.49504
G1 X194.693 Y139.901 E21.54237
G1 X198.102 Y136.492 E21.79672
G1 X198.102 Y137.389 E21.84405
G1 X195.590 Y139.901 E22.03147
G1 X196.487 Y139.901 E22.07880
G1 X198.102 Y138.286 E22.19928
G1 X198.102 Y139.184 E22.24661
G1 X197.102 Y140.184 E22.32124
M106 S255
G1 F4320
G1 X198.102 Y139.184 E21.76125
G1 F4320
G1 X198.102 Y138.286 E21.40610
G1 F4320
G1 X196.487 Y139.901 E20.50212
G1 F4320
G1 X196.283 Y139.901 E20.42124
G1 E20.32124 F1800.00000
G92 E0
G1 Z0.600 F5400.000
G1 X174.980 Y122.356 F5400.000
G1 E2.00000 F1800.00000
G1 F1203.424
G1 X187.700 Y122.356 E2.37767
G1 X187.700 Y141.156 E2.93587
G1 X174.980 Y141.156 E3.31354
G1 X174.980 Y122.416 E3.86996
G1 X174.902 Y121.964 F5400.000
G1 F4320
G1 X179.780 Y122.394 E1.96996
G1 E1.86996 F1800.00000
G92 E0
G1 X188.500 Y122.756 F5400.000
G1 X188.500 Y122.756 F5400.000
G1 X188.821 Y123.077 F5400.000
G1 E2.00000 F1800.00000
G1 F2406.848
G1 X198.654 Y123.077 E2.51369
G1 X198.654 Y140.435 E3.42056
G1 X188.821 Y140.435 E3.93425
G1 X188.821 Y123.137 E4.83798
G1 X188.193 Y122.449 F5400.000
G1 F2406.848
G1 X199.282 Y122.449 E5.41732
G1 X199.282 Y141.064 E6.38984
G1 X188.193 Y141.064 E6.96919
G1 X188.193 Y122.509 E7.93857
G1 F4320
G1 X192.993 Y122.483 E6.03857
G1 E5.93857 F1800.00000
G92 E0
G1 X199.775 Y121.956 F5400.000
G1 E2.00000 F1800.00000
G1 F1203.424
G1 X199.775 Y141.556 E2.58195
G1 X174.577 Y141.556 E3.33009
G1 X174.577 Y121.956 E3.91204
G1 X199.715 Y121.956 E4.65841
G1 X199.655 Y122.338 F5400.000
G1 F4320
G1 X199.730 Y126.756 E2.75841
G1 E2.65841 F1800.00000
G92 E0
G1 X198.403 Y124.627 F5400.000
G1 E2.00000 F1800.00000
G1 F2166.163
G1 X197.387 Y123.611 E2.07660
G1 X196.480 Y123.611 E2.12500
G1 X198.120 Y125.251 E2.24871
G1 X198.120 Y126.158 E2.29711
G1 X195.573 Y123.611 E2.48927
G1 X194.665 Y123.611 E2.53767
G1 X198.120 Y127.066 E2.79827
G1 X198.120 Y127.973 E2.84667
G1 X193.758 Y123.611 E3.17571
G1 X192.851 Y123.611 E3.22411
G1 X198.120 Y128.880 E3.62160
G1 X198.120 Y129.788 E3.67000
G1 X191.944 Y123.611 E4.13593
G1 X191.036 Y123.611 E4.18433
G1 X198.120 Y130.695 E4.71871
G1 X198.120 Y131.602 E4.76711
G1 X190.129 Y123.611 E5.36993
G1 X189.355 Y123.611 E5.41119
G1 X189.355 Y123.745 E5.41832
G1 X198.120 Y132.509 E6.07950
G1 X198.120 Y133.417 E6.12790
G1 X189.355 Y124.652 E6.78907
G1 X189.355 Y125.560 E6.83747
G1 X198.120 Y134.324 E7.49864
G1 X198.120 Y135.231 E7.54704
G1 X189.355 Y126.467 E8.20821
G1 X189.355 Y127.374 E8.25661
G1 X198.120 Y136.138 E8.91778
G1 X198.120 Y137.046 E8.96618
G1 X189.355 Y128.281 E9.62736
G1 X189.355 Y129.189 E9.67575
G1 X198.120 Y137.953 E10.33693
G1 X198.120 Y138.860 E10.38532
G1 X189.355 Y130.096 E11.04650
G1 X189.355 Y131.003 E11.09490
G1 X198.120 Y139.767 E11.75607
G1 X198.120 Y139.901 E11.76320
G1 X197.346 Y139.901 E11.80447
G1 X189.355 Y131.910 E12.40728
G1 X189.355 Y132.818 E12.45568
G1 X196.439 Y139.901 E12.99005
G1 X195.532 Y139.901 E13.03844
G1 X189.355 Y133.725 E13.50437
G1 X189.355 Y134.632 E13.55277
G1 X194.624 Y139.901 E13.95025
G1 X193.717 Y139.901 E13.99865
G1 X189.355 Y135.540 E14.32769
G1 X189.355 Y136.447 E14.37608
G1 X192.810 Y139.901 E14.63668
G1 X191.903 Y139.901 E14.68507
G1 X189.355 Y137.354 E14.87723
G1 X189.355 Y138.261 E14.92562
G1 X190.995 Y139.901 E15.04933
G1 X190.088 Y139.901 E15.09773
G1 X189.073 Y138.886 E15.17432
G1 F4320
G1 X190.088 Y139.901 E14.60597
G1 F4320
G1 X190.995 Y139.901 E14.24684
G1 F4320
G1 X189.355 Y138.261 E13.32889
G1 F4320
G1 X189.355 Y138.123 E13.27432
G1 E13.17432 F1800.00000
G92 E0
G1 Z0.800 F5400.000
G1 X174.998 Y122.356 F5400.000
G1 E2.00000 F1800.00000
G1 F986.066
G1 X194.083 Y122.356 E2.56667
G1 X194.083 Y141.156 E3.12487
G1 X174.998 Y141.156 E3.69154
G1 X174.998 Y122.416 E4.24796
G1 X174.893 Y121.970 F5400.000
G1 F4320
G1 X179.798 Y122.401 E2.34796
G1 E2.24796 F1800.00000
G92 E0
G1 X194.883 Y122.756 F5400.000
G1 X194.883 Y122.756 F5400.000
G1 X195.204 Y123.077 F5400.000
G1 E2.00000 F1800.00000
G1 F1972.132
G1 X198.671 Y123.077 E2.18113
G1 X198.671 Y140.435 E3.08799
G1 X195.204 Y140.435 E3.26912
G1 X195.204 Y123.137 E4.17285
G1 X194.576 Y122.449 F5400.000
G1 F1972.132
G1 X199.300 Y122.449 E4.41962
G1 X199.300 Y141.064 E5.39214
G1 X194.576 Y141.064 E5.63892
G1 X194.576 Y122.509 E6.60830
G1 F4320
G1 X199.300 Y122.449 E4.73844
G1 F4320
G1 X199.300 Y122.525 E4.70830
G1 E4.60830 F1800.00000
G92 E0
G1 X199.792 Y121.956 F5400.000
G1 E2.00000 F1800.00000
G1 F986.066
G1 X199.792 Y141.556 E2.58195
G1 X174.595 Y141.556 E3.33009
G1 X174.595 Y121.956 E3.91204
G1 X199.732 Y121.956 E4.65841
G1 X199.673 Y122.338 F5400.000
G1 F4320
G1 X199.747 Y126.756 E2.75841
G1 E2.65841 F1800.00000
G92 E0
G1 X195.456 Y124.626 F5400.000
G1 E2.00000 F1800.00000
G1 F1064.951
G1 X196.470 Y123.611 E2.07646
G1 X197.377 Y123.611 E2.12479
G1 X195.739 Y125.249 E2.24828
G1 X195.739 Y126.156 E2.29660
G1 X198.137 Y123.757 E2.47743
G1 X198.137 Y124.664 E2.52576
