; generated by Slic3r 1.33.8-prusa3d-win64 on 2017-05-19 at 14:59:40

; external perimeters extrusion width = 0.40mm
; perimeters extrusion width = 0.68mm
; infill extrusion width = 0.87mm
; solid infill extrusion width = 0.68mm
; top infill extrusion width = 0.68mm

M107
M80 ; turn on PSU
M140 S55
M104 S240 ; start E heating
M17; enable motors
G28 X Y ; Z ; Home
M190 S55
M109 S240
G91
G1 E5 F200
G90
G21 ; set units to millimeters
G90 ; use absolute coordinates
M82 ; use absolute distances for extrusion
G92 E0
G1 E-2.00000 F1800.00000
G92 E0
G1 Z0.200 F5400.000
G1 X157.459 Y134.860 F5400.000
G1 E2.00000 F1800.00000
G1 F1200
G1 X160.201 Y131.925 E2.20986
G1 X160.469 Y131.664 E2.22938
G1 X160.755 Y131.423 E2.24891
G1 X161.067 Y131.197 E2.26903
G1 X161.389 Y130.997 E2.28885
G1 X164.796 Y129.115 E2.49222
G1 X165.435 Y128.824 E2.52889
G1 X166.112 Y128.620 E2.56585
G1 X170.022 Y127.861 E2.77394
G1 X170.595 Y127.787 E2.80411
G1 X171.184 Y127.776 E2.83487
G1 X221.720 Y129.805 E5.47727
G1 X222.407 Y129.880 E5.51335
G1 X223.072 Y130.042 E5.54913
G1 X223.424 Y130.167 E5.56865
G1 X223.767 Y130.317 E5.58818
G1 X224.098 Y130.491 E5.60771
G1 X224.416 Y130.687 E5.62724
G1 X224.719 Y130.906 E5.64676
G1 X225.005 Y131.146 E5.66629
G1 X225.274 Y131.405 E5.68582
G1 X225.524 Y131.683 E5.70535
G1 X225.754 Y131.978 E5.72487
G1 X225.962 Y132.289 E5.74440
G1 X226.147 Y132.613 E5.76393
G1 X226.309 Y132.950 E5.78345
G1 X226.446 Y133.298 E5.80298
G1 X226.559 Y133.654 E5.82251
G1 X226.646 Y134.018 E5.84204
G1 X226.707 Y134.386 E5.86156
G1 X226.749 Y135.047 E5.89616
G1 X226.737 Y155.106 E6.94412
G1 X226.720 Y155.491 E6.96424
G1 X226.673 Y155.879 E6.98466
G1 X226.597 Y156.262 E7.00507
G1 X226.494 Y156.639 E7.02549
G1 X226.364 Y157.001 E7.04561
G1 X226.206 Y157.359 E7.06602
G1 X226.025 Y157.699 E7.08614
G1 X225.816 Y158.029 E7.10655
G1 X225.584 Y158.343 E7.12697
G1 X225.332 Y158.634 E7.14709
G1 X225.056 Y158.910 E7.16750
G1 X224.759 Y159.165 E7.18792
G1 X224.450 Y159.394 E7.20803
G1 X224.119 Y159.603 E7.22845
G1 X223.774 Y159.786 E7.24886
G1 X223.417 Y159.944 E7.26928
G1 X223.054 Y160.072 E7.28940
G1 X222.677 Y160.175 E7.30981
G1 X222.293 Y160.250 E7.33022
G1 X221.911 Y160.295 E7.35034
G1 X171.928 Y162.270 E9.96374
G1 X171.227 Y162.240 E10.00041
G1 X167.401 Y161.769 E10.20177
G1 X166.944 Y161.689 E10.22603
G1 X166.495 Y161.570 E10.25029
G1 X165.898 Y161.341 E10.28370
G1 X162.438 Y159.728 E10.48316
G1 X162.110 Y159.560 E10.50239
G1 X161.790 Y159.367 E10.52191
G1 X161.457 Y159.131 E10.54322
G1 X161.144 Y158.870 E10.56452
G1 X158.302 Y156.222 E10.76748
G1 X158.044 Y155.960 E10.78671
G1 X157.801 Y155.676 E10.80624
G1 X157.582 Y155.380 E10.82547
G1 X157.384 Y155.069 E10.84470
G1 X155.453 Y151.588 E11.05269
G1 X155.271 Y151.211 E11.07458
G1 X155.117 Y150.815 E11.09677
G1 X154.944 Y150.176 E11.13137
G1 X154.216 Y146.429 E11.33077
G1 X154.158 Y146.060 E11.35030
G1 X154.127 Y145.687 E11.36983
G1 X154.123 Y145.279 E11.39113
G1 X154.151 Y144.873 E11.41243
G1 X154.636 Y140.955 E11.61867
G1 X154.702 Y140.587 E11.63820
G1 X154.796 Y140.220 E11.65802
G1 X154.917 Y139.860 E11.67784
G1 X155.063 Y139.510 E11.69766
G1 X156.751 Y135.909 E11.90543
G1 X157.058 Y135.387 E11.93708
G1 X157.420 Y134.906 E11.96855
G1 X157.920 Y135.289 F5400.000
G1 F1200
G1 X160.650 Y132.364 E12.17757
G1 X161.142 Y131.918 E12.21225
G1 X161.706 Y131.539 E12.24776
G1 X165.088 Y129.671 E12.44960
G1 X165.663 Y129.409 E12.48262
G1 X166.268 Y129.228 E12.51564
G1 X170.134 Y128.479 E12.72136
G1 X170.650 Y128.413 E12.74856
G1 X171.167 Y128.405 E12.77554
G1 X221.688 Y130.432 E15.41716
G1 X222.285 Y130.496 E15.44852
G1 X222.868 Y130.637 E15.47987
G1 X223.486 Y130.879 E15.51455
G1 X224.063 Y131.208 E15.54923
G1 X224.588 Y131.615 E15.58391
G1 X225.051 Y132.097 E15.61887
G1 X225.438 Y132.637 E15.65355
G1 X225.746 Y133.231 E15.68851
G1 X225.963 Y133.858 E15.72319
G1 X226.089 Y134.515 E15.75815
G1 X226.121 Y135.051 E15.78618
G1 X226.109 Y155.097 E16.83351
G1 X226.054 Y155.769 E16.86874
G1 X225.900 Y156.432 E16.90425
G1 X225.785 Y156.757 E16.92230
G1 X225.649 Y157.069 E16.94007
G1 X225.487 Y157.374 E16.95811
G1 X225.303 Y157.666 E16.97616
G1 X225.098 Y157.944 E16.99420
G1 X224.872 Y158.206 E17.01225
G1 X224.628 Y158.450 E17.03029
G1 X224.366 Y158.675 E17.04834
G1 X224.093 Y158.877 E17.06610
G1 X223.801 Y159.061 E17.08415
G1 X223.495 Y159.223 E17.10219
G1 X223.179 Y159.362 E17.12024
G1 X222.853 Y159.477 E17.13828
G1 X222.520 Y159.567 E17.15633
G1 X222.181 Y159.631 E17.17438
G1 X221.837 Y159.671 E17.19242
G1 X171.914 Y161.642 E19.80272
G1 X171.293 Y161.615 E19.83518
G1 X167.485 Y161.146 E20.03561
G1 X167.087 Y161.077 E20.05671
G1 X166.702 Y160.976 E20.07753
G1 X166.156 Y160.768 E20.10805
G1 X162.704 Y159.159 E20.30706
G1 X162.133 Y158.841 E20.34118
G1 X161.838 Y158.631 E20.36006
G1 X161.561 Y158.400 E20.37894
G1 X158.740 Y155.771 E20.58039
G1 X158.297 Y155.291 E20.61452
G1 X157.924 Y154.748 E20.64892
G1 X156.012 Y151.303 E20.85480
G1 X155.852 Y150.973 E20.87395
G1 X155.717 Y150.626 E20.89339
G1 X155.559 Y150.047 E20.92474
G1 X154.834 Y146.315 E21.12339
G1 X154.755 Y145.656 E21.15807
G1 X154.751 Y145.294 E21.17695
G1 X154.776 Y144.934 E21.19582
G1 X155.255 Y141.060 E21.39977
G1 X155.396 Y140.406 E21.43473
G1 X155.630 Y139.779 E21.46969
G1 X157.301 Y136.214 E21.67535
G1 X157.565 Y135.759 E21.70282
G1 X157.881 Y135.334 E21.73050
G1 F4320
G1 X160.650 Y132.364 E20.12310
G1 F4320
G1 X161.142 Y131.918 E19.86035
G1 F4320
G1 X161.204 Y131.876 E19.83050
G1 E19.73050 F1800.00000
G92 E0
G1 X212.277 Y135.650 F5400.000
G1 E2.00000 F1800.00000
G1 F1200
G1 X220.693 Y135.656 E2.24986
G1 X220.681 Y154.456 E2.80806
G1 X212.266 Y154.450 E3.05792
G1 X212.277 Y135.710 E3.61433
G1 X212.222 Y135.254 F5400.000
G1 X211.156 Y135.964 F5400.000
G1 F1200
G1 X211.145 Y154.142 E4.56405
G1 X171.861 Y155.691 E6.61806
G1 X168.441 Y155.270 E6.79806
G1 X165.412 Y153.857 E6.97269
G1 X162.968 Y151.580 E7.14719
G1 X161.350 Y148.661 E7.32155
G1 X160.714 Y145.387 E7.49582
G1 X161.123 Y142.077 E7.67007
G1 X162.538 Y139.055 E7.84439
G1 X164.819 Y136.616 E8.01884
G1 X167.744 Y135.000 E8.19343
G1 X171.081 Y134.355 E8.37101
G1 X211.096 Y135.961 E10.46328
G1 X211.785 Y135.360 F5400.000
G1 F1200
G1 X211.773 Y154.746 E11.47609
G1 X171.835 Y156.321 E13.56430
G1 X168.266 Y155.881 E13.75216
G1 X165.056 Y154.385 E13.93717
G1 X162.467 Y151.972 E14.12207
G1 X160.752 Y148.879 E14.30684
G1 X160.078 Y145.409 E14.49152
G1 X160.512 Y141.901 E14.67619
G1 X162.011 Y138.698 E14.86092
G1 X164.428 Y136.114 E15.04577
G1 X167.527 Y134.402 E15.23075
G1 X171.034 Y133.724 E15.41734
G1 X211.725 Y135.358 E17.54496
G1 F4320
G1 X211.737 Y140.158 E15.64496
G1 E15.54496 F1800.00000
G92 E0
G1 X221.293 Y135.248 F5400.000
G1 E2.00000 F1800.00000
G1 F1200
G1 X221.281 Y154.864 E2.58241
G1 X171.814 Y156.815 E4.05229
G1 X168.128 Y156.360 E4.16256
G1 X164.777 Y154.798 E4.27233
G1 X162.074 Y152.279 E4.38204
G1 X160.283 Y149.049 E4.49169
G1 X159.580 Y145.426 E4.60128
G1 X160.033 Y141.763 E4.71088
G1 X161.598 Y138.418 E4.82050
G1 X164.121 Y135.721 E4.93019
G1 X167.357 Y133.933 E5.03994
G1 X170.996 Y133.230 E5.14999
G1 X221.233 Y135.246 E6.64278
G1 X221.090 Y135.593 F5400.000
G1 X220.993 Y135.483 F5400.000
G1 F1200
G1 X220.981 Y154.629 E6.74528
G1 F4320
G1 X220.984 Y149.829 E4.84528
G1 E4.74528 F1800.00000
G92 E0
G1 X217.193 Y154.739 F5400.000
G1 E2.00000 F1800.00000
G1 F1200
G1 X215.124 Y154.779 E2.01337
G1 F1200
G1 X213.054 Y154.819 E2.04052
G1 F1200
G1 X212.019 Y154.839 E2.06098
G1 F4320
G1 X213.054 Y154.819 E1.65133
G1 E0.06098 F1800.00000
G92 E0
G1 X210.904 Y137.494 F5400.000
G1 E2.00000 F1800.00000
G1 F1200
G1 X209.856 Y136.446 E2.07851
G1 X208.917 Y136.408 E2.12826
G1 X210.621 Y138.112 E2.25586
G1 X210.620 Y139.012 E2.30355
G1 X207.979 Y136.371 E2.50142
G1 X207.040 Y136.333 E2.55117
G1 X210.620 Y139.912 E2.81930
G1 X210.619 Y140.813 E2.86698
G1 X206.102 Y136.295 E3.20537
G1 X205.163 Y136.258 E3.25512
G1 X210.619 Y141.713 E3.66377
G1 X210.618 Y142.613 E3.71146
G1 X204.225 Y136.220 E4.19037
G1 X203.286 Y136.182 E4.24012
G1 X210.618 Y143.514 E4.78929
G1 X210.617 Y144.414 E4.83698
G1 X202.348 Y136.145 E5.45642
G1 X201.409 Y136.107 E5.50617
G1 X210.616 Y145.314 E6.19586
G1 X210.616 Y146.215 E6.24355
G1 X200.471 Y136.069 E7.00351
G1 X199.532 Y136.032 E7.05326
G1 X210.615 Y147.115 E7.88348
G1 X210.615 Y148.015 E7.93116
G1 X198.593 Y135.994 E8.83164
G1 X197.655 Y135.956 E8.88139
G1 X210.614 Y148.915 E9.85213
G1 X210.614 Y149.816 E9.89982
G1 X196.716 Y135.919 E10.94082
G1 X195.778 Y135.881 E10.99057
G1 X210.613 Y150.716 E12.10184
G1 X210.613 Y151.616 E12.14953
G1 X194.839 Y135.843 E13.33105
G1 X193.901 Y135.806 E13.38080
G1 X210.612 Y152.517 E14.63259
G1 X210.612 Y153.417 E14.68028
G1 X192.962 Y135.768 E16.00232
G1 X192.024 Y135.730 E16.05207
G1 X209.948 Y153.655 E17.39474
G1 X209.082 Y153.689 E17.44068
G1 X191.085 Y135.693 E18.78872
G1 X190.147 Y135.655 E18.83847
G1 X208.215 Y153.723 E20.19190
G1 X207.348 Y153.757 E20.23784
G1 X189.208 Y135.617 E21.59665
G1 X188.270 Y135.580 E21.64640
G1 X206.481 Y153.791 E23.01058
G1 X205.615 Y153.825 E23.05653
G1 X187.331 Y135.542 E24.42609
G1 X186.393 Y135.504 E24.47585
G1 X204.748 Y153.860 E25.85080
G1 X203.881 Y153.894 E25.89674
G1 X185.454 Y135.467 E27.27707
G1 X184.516 Y135.429 E27.32682
G1 X203.015 Y153.928 E28.71253
G1 X202.148 Y153.962 E28.75847
G1 X183.577 Y135.391 E30.14957
G1 X182.639 Y135.354 E30.19932
G1 X201.281 Y153.996 E31.59579
G1 X200.415 Y154.030 E31.64173
G1 X181.700 Y135.316 E33.04359
G1 X180.761 Y135.278 E33.09334
G1 X199.548 Y154.065 E34.50058
G1 X198.681 Y154.099 E34.54652
G1 X179.823 Y135.241 E35.95914
G1 X178.884 Y135.203 E36.00889
G1 X197.815 Y154.133 E37.42689
G1 X196.948 Y154.167 E37.47283
G1 X177.946 Y135.165 E38.89621
G1 X177.007 Y135.128 E38.94596
G1 X196.081 Y154.201 E40.37473
G1 X195.215 Y154.236 E40.42067
G1 X176.069 Y135.090 E41.85481
G1 X175.130 Y135.052 E41.90456
G1 X194.348 Y154.270 E43.34409
G1 X193.481 Y154.304 E43.39003
G1 X174.192 Y135.015 E44.83493
G1 X173.253 Y134.977 E44.88468
G1 X192.614 Y154.338 E46.33497
G1 X191.748 Y154.372 E46.38091
G1 X172.315 Y134.939 E47.83658
G1 X171.376 Y134.902 E47.88633
G1 X190.881 Y154.406 E49.34738
G1 X190.014 Y154.441 E49.39332
G1 X170.572 Y134.998 E50.84973
G1 X169.817 Y135.144 E50.89046
G1 X189.148 Y154.475 E52.33849
G1 X188.281 Y154.509 E52.38443
G1 X169.062 Y135.290 E53.82410
G1 X168.307 Y135.436 E53.86482
G1 X187.414 Y154.543 E55.29612
G1 X186.548 Y154.577 E55.34206
G1 X167.639 Y135.669 E56.75846
G1 X167.059 Y135.989 E56.79357
G1 X185.681 Y154.611 E58.18852
G1 X184.814 Y154.646 E58.23446
G1 X166.478 Y136.310 E59.60795
G1 X165.898 Y136.630 E59.64307
G1 X183.948 Y154.680 E60.99511
G1 X183.081 Y154.714 E61.04105
G1 X165.318 Y136.951 E62.37164
G1 X165.151 Y137.043 E62.38172
G1 X164.841 Y137.375 E62.40579
G1 X182.214 Y154.748 E63.70719
G1 X181.348 Y154.782 E63.75314
G1 X164.405 Y137.840 E65.02223
G1 X163.970 Y138.305 E65.05599
G1 X180.481 Y154.817 E66.29278
G1 X179.614 Y154.851 E66.33873
G1 X163.534 Y138.771 E67.54321
G1 X163.099 Y139.236 E67.57697
G1 X178.747 Y154.885 E68.74915
G1 X177.881 Y154.919 E68.79510
G1 X162.773 Y139.811 E69.92676
G1 X162.486 Y140.425 E69.96265
G1 X177.014 Y154.953 E71.05091
G1 X176.147 Y154.987 E71.09685
G1 X162.199 Y141.039 E72.14170
G1 X161.912 Y141.652 E72.17759
G1 X175.281 Y155.022 E73.17903
G1 X174.414 Y155.056 E73.22497
G1 X161.637 Y142.278 E74.18208
G1 X161.538 Y143.080 E74.22487
G1 X173.547 Y155.090 E75.12449
G1 X172.681 Y155.124 E75.17043
G1 X161.438 Y143.882 E76.01256
G1 X161.339 Y144.684 E76.05535
G1 X171.801 Y155.145 E76.83901
G1 X170.774 Y155.019 E76.89385
G1 X161.286 Y145.531 E77.60451
G1 X161.503 Y146.649 E77.66483
G1 X169.746 Y154.892 E78.28227
G1 X168.719 Y154.766 E78.33711
G1 X161.720 Y147.767 E78.86134
G1 X161.858 Y148.476 E78.89960
G1 X162.268 Y149.216 E78.94438
G1 X167.698 Y154.646 E79.35112
G1 X166.010 Y153.859 F5400.000
G1 F1200
G1 X162.664 Y150.512 E79.60178
G1 F4320
G1 X166.010 Y153.859 E77.72852
G1 E77.60178 F1800.00000
G92 E0
G1 X212.031 Y135.263 F5400.000
G1 E2.00000 F1800.00000
G1 F1200
G1 X214.581 Y135.315 E2.03886
G1 F1200
G1 X217.132 Y135.368 E2.05714
M106 S160.65
M104 S233 ; set temperature
G1 F4320
G1 X214.581 Y135.315 E1.04747
G1 E0.05714 F1800.00000
G92 E0
G1 Z0.350 F5400.000
G1 X212.267 Y135.650 F5400.000
G1 E2.00000 F1800.00000
G1 F1350
G1 X220.682 Y135.656 E2.19303
G1 X220.670 Y154.456 E2.62425
G1 X212.255 Y154.450 E2.81728
G1 X212.267 Y135.710 E3.24713
G1 X212.211 Y135.254 F5400.000
G1 X211.111 Y135.997 F5400.000
G1 F2700
G1 X211.100 Y154.108 E3.97877
G1 X171.851 Y155.656 E5.56561
G1 X168.440 Y155.236 E5.70446
G1 X165.421 Y153.828 E5.83905
G1 X162.985 Y151.558 E5.97355
G1 X161.372 Y148.649 E6.10793
G1 X160.738 Y145.385 E6.24224
G1 X161.146 Y142.086 E6.37654
G1 X162.556 Y139.074 E6.51090
G1 X164.830 Y136.644 E6.64535
G1 X167.745 Y135.033 E6.77991
G1 X171.073 Y134.390 E6.91685
G1 X211.051 Y135.995 E8.53322
G1 X211.759 Y135.375 F5400.000
G1 F2700
G1 X211.747 Y154.730 E9.31516
G1 X171.824 Y156.305 E10.92926
G1 X168.259 Y155.866 E11.07438
G1 X165.054 Y154.372 E11.21725
G1 X162.468 Y151.962 E11.36003
G1 X160.756 Y148.873 E11.50272
G1 X160.083 Y145.408 E11.64533
G1 X160.516 Y141.905 E11.78794
G1 X162.013 Y138.706 E11.93059
G1 X164.427 Y136.126 E12.07334
G1 X167.522 Y134.416 E12.21618
G1 X171.024 Y133.739 E12.36029
G1 X211.699 Y135.373 E14.00486
G1 F4320
G1 X211.711 Y140.173 E12.10486
G1 E12.00486 F1800.00000
G92 E0
G1 X221.254 Y135.248 F5400.000
G1 E2.00000 F1800.00000
G1 F1350
G1 X221.246 Y154.864 E2.44994
G1 X171.803 Y156.814 E3.58492
G1 X168.117 Y156.360 E3.67010
G1 X164.767 Y154.798 E3.75490
G1 X162.063 Y152.279 E3.83966
G1 X160.272 Y149.049 E3.92436
G1 X159.569 Y145.426 E4.00903
G1 X160.009 Y141.870 E4.09122
G1 X160.022 Y141.762 E4.09370
G1 X161.587 Y138.418 E4.17839
G1 X164.111 Y135.720 E4.26312
G1 X167.346 Y133.933 E4.34791
G1 X170.985 Y133.230 E4.43293
G1 X221.194 Y135.246 E5.58552
G1 X221.051 Y135.593 F5400.000
G1 F4320
G1 X221.207 Y140.046 E3.68552
G1 E3.58552 F1800.00000
G92 E0
G1 X216.688 Y135.359 F5400.000
G1 E2.00000 F1800.00000
G1 F1200
G1 X214.350 Y135.311 E2.01369
G1 F1200
G1 X212.013 Y135.263 E2.04033
G1 F4320
G1 X214.350 Y135.311 E1.11487
G1 E0.04033 F1800.00000
G92 E0
G1 X209.461 Y153.913 F5400.000
G1 E2.00000 F1800.00000
G1 F2430
G1 X210.550 Y152.824 E2.06289
G1 X210.550 Y151.897 E2.10073
G1 X208.801 Y153.647 E2.20178
G1 X207.836 Y153.685 E2.24118
G1 X210.551 Y150.971 E2.39794
G1 X210.552 Y150.044 E2.43577
G1 X206.872 Y153.723 E2.64823
G1 X205.908 Y153.761 E2.68763
G1 X210.552 Y149.118 E2.95579
G1 X210.553 Y148.191 E2.99363
G1 X204.944 Y153.799 E3.31749
G1 X203.980 Y153.837 E3.35689
G1 X210.553 Y147.265 E3.73645
G1 X210.554 Y146.338 E3.77429
G1 X203.016 Y153.875 E4.20956
G1 X202.052 Y153.913 E4.24895
G1 X210.554 Y145.411 E4.73993
G1 X210.555 Y144.485 E4.77776
G1 X201.088 Y153.952 E5.32444
G1 X200.124 Y153.990 E5.36383
G1 X210.556 Y143.558 E5.96621
G1 X210.556 Y142.632 E6.00404
G1 X199.160 Y154.028 E6.66212
G1 X198.196 Y154.066 E6.70152
G1 X210.557 Y141.705 E7.41530
G1 X210.557 Y140.779 E7.45314
G1 X197.232 Y154.104 E8.22262
G1 X196.268 Y154.142 E8.26201
G1 X210.558 Y139.852 E9.08720
G1 X210.558 Y138.926 E9.12504
G1 X195.304 Y154.180 E10.00592
G1 X194.340 Y154.218 E10.04532
G1 X210.559 Y137.999 E10.98191
G1 X210.559 Y137.072 E11.01975
G1 X193.376 Y154.256 E12.01204
G1 X192.412 Y154.294 E12.05144
G1 X210.194 Y136.512 E13.07831
G1 X209.304 Y136.476 E13.11470
G1 X191.448 Y154.332 E14.14584
G1 X190.484 Y154.370 E14.18523
G1 X208.414 Y136.440 E15.22063
G1 X207.524 Y136.404 E15.25701
G1 X189.520 Y154.408 E16.29668
G1 X188.556 Y154.446 E16.33607
G1 X206.633 Y136.368 E17.38000
G1 X205.743 Y136.333 E17.41638
G1 X187.592 Y154.484 E18.46457
G1 X186.628 Y154.522 E18.50396
G1 X204.853 Y136.297 E19.55641
G1 X203.963 Y136.261 E19.59279
G1 X185.664 Y154.560 E20.64950
G1 X184.700 Y154.598 E20.68889
G1 X203.072 Y136.225 E21.74986
G1 X202.182 Y136.190 E21.78625
G1 X183.736 Y154.636 E22.85148
G1 X182.772 Y154.674 E22.89087
G1 X201.292 Y136.154 E23.96037
G1 X200.402 Y136.118 E23.99675
